assets/icons/librescoot-overlay-asleep.svg

<svg xmlns="http://www.w3.org/2000/svg" width="144" height="144" fill="none" viewBox="0 0 144 144"><mask id="a" width="23" height="26" x="95" y="23" fill="#000" maskUnits="userSpaceOnUse"><path fill="#fff" d="M95 23h23v26H95z"/><path d="M97.3754 47v-3.608l10.6816-13.2244v-.1562H97.7447v-4.8296h17.5993v3.9347l-10.028 12.8977v.1563h10.397V47z"/></mask><path fill="#fff" d="M97.3754 47v-3.608l10.6816-13.2244v-.1562H97.7447v-4.8296h17.5993v3.9347l-10.028 12.8977v.1563h10.397V47z"/><path fill="#000" d="M97.3754 47h-2v2h2zm0-3.608-1.5559-1.2567-.4441.5499v.7068zm10.6816-13.2244 1.556 1.2567.444-.5498v-.7069zm0-.1562h2v-2h-2zm-10.3123 0h-2v2h2zm0-4.8296v-2h-2v2zm17.5993 0h2v-2h-2zm0 3.9347 1.579 1.2276.421-.5416v-.686zm-10.028 12.8977-1.579-1.2276-.421.5416v.686zm0 .1563h-2v2h2zm10.397 0h2v-2h-2zm0 4.8295v2h2v-2zm-18.3376 0h2v-3.608h-4V47zm0-3.608 1.5558 1.2568 10.6818-13.2245-1.556-1.2567-1.556-1.2567-10.6815 13.2244zm10.6816-13.2244h2v-.1562h-4v.1562zm0-.1562v-2H97.7447v4h10.3123zm-10.3123 0h2v-4.8296h-4v4.8296zm0-4.8296v2h17.5993v-4H97.7447zm17.5993 0h-2v3.9347h4v-3.9347zm0 3.9347-1.579-1.2277-10.028 12.8978 1.579 1.2276 1.579 1.2276 10.028-12.8977zm-10.028 12.8977h-2v.1563h4v-.1563zm0 .1563v2h10.397v-4h-10.397zm10.397 0h-2V47h4v-4.8295zm0 4.8295v-2H97.3754v4h18.3376z" mask="url(#a)"/><mask id="b" width="18" height="21" x="79" y="33" fill="#000" maskUnits="userSpaceOnUse"><path fill="#fff" d="M79 33h18v21H79z"/><path d="M81.1565 52v-2.706l8.0114-9.9183v-.1172h-7.7344v-3.6221h13.1996v2.951l-7.5213 9.6733v.1171h7.7983V52z"/></mask><path fill="#fff" d="M81.1565 52v-2.706l8.0114-9.9183v-.1172h-7.7344v-3.6221h13.1996v2.951l-7.5213 9.6733v.1171h7.7983V52z"/><path fill="#000" d="M81.1565 52h-2v2h2zm0-2.706-1.5558-1.2567-.4442.5499v.7068zm8.0114-9.9183 1.5558 1.2567.4442-.5498v-.7069zm0-.1172h2v-2h-2zm-7.7344 0h-2v2h2zm0-3.6221v-2h-2v2zm13.1996 0h2v-2h-2zm0 2.951 1.5789 1.2276.4211-.5416v-.686zm-7.5213 9.6733-1.5789-1.2277-.4211.5416v.6861zm0 .1171h-2v2h2zm7.7983 0h2v-2h-2zm0 3.6222v2h2v-2zm-13.7536 0h2v-2.706h-4V52zm0-2.706 1.5559 1.2567 8.0113-9.9183-1.5558-1.2567-1.5559-1.2567-8.0113 9.9183zm8.0114-9.9183h2v-.1172h-4v.1172zm0-.1172v-2h-7.7344v4h7.7344zm-7.7344 0h2v-3.6221h-4v3.6221zm0-3.6221v2h13.1996v-4H81.4335zm13.1996 0h-2v2.951h4v-2.951zm0 2.951-1.5789-1.2277-7.5213 9.6733 1.5789 1.2277 1.5789 1.2276 7.5213-9.6733zm-7.5213 9.6733h-2v.1171h4v-.1171zm0 .1171v2h7.7983v-4h-7.7983zm7.7983 0h-2V52h4v-3.6222zm0 3.6222v-2H81.1565v4h13.7536z" mask="url(#b)"/><mask id="c" width="27" height="31" x="116" y="13" fill="#000" maskUnits="userSpaceOnUse"><path fill="#fff" d="M116 13h27v31h-27z"/><path d="M118.05 42v-4.3295l12.819-15.8694v-.1875h-12.375v-5.7954h21.119v4.7216L127.579 36.017v.1875h12.477V42z"/></mask><path fill="#fff" d="M118.05 42v-4.3295l12.819-15.8694v-.1875h-12.375v-5.7954h21.119v4.7216L127.579 36.017v.1875h12.477V42z"/><path fill="#000" d="M118.05 42h-2v2h2zm0-4.3295-1.555-1.2568-.445.5499v.7069zm12.819-15.8694 1.555 1.2567.445-.5498v-.7069zm0-.1875h2v-2h-2zm-12.375 0h-2v2h2zm0-5.7954v-2h-2v2zm21.119 0h2v-2h-2zm0 4.7216 1.579 1.2276.421-.5416v-.686zM127.579 36.017 126 34.7894l-.421.5416v.686zm0 .1875h-2v2h2zm12.477 0h2v-2h-2zm0 5.7955v2h2v-2zm-22.006 0h2v-4.3295h-4V42zm0-4.3295 1.556 1.2567 12.818-15.8694-1.555-1.2567-1.556-1.2567-12.818 15.8693zm12.819-15.8694h2v-.1875h-4v.1875zm0-.1875v-2h-12.375v4h12.375zm-12.375 0h2v-5.7954h-4v5.7954zm0-5.7954v2h21.119v-4h-21.119zm21.119 0h-2v4.7216h4v-4.7216zm0 4.7216-1.579-1.2277L126 34.7894l1.579 1.2276 1.579 1.2277 12.034-15.4773zM127.579 36.017h-2v.1875h4v-.1875zm0 .1875v2h12.477v-4h-12.477zm12.477 0h-2V42h4v-5.7955zm0 5.7955v-2H118.05v4h22.006z" mask="url(#c)"/></svg>

<svg width="144" height="144" viewBox="0 0 144 144" fill="none" xmlns="http://www.w3.org/2000/svg">
<mask id="path-1-outside-1_597_520" maskUnits="userSpaceOnUse" x="95" y="23" width="23" height="26" fill="black">
<rect fill="white" x="95" y="23" width="23" height="26"/>
<path d="M97.3754 47V43.392L108.057 30.1676V30.0114H97.7447V25.1818H115.344V29.1165L105.316 42.0142V42.1705H115.713V47H97.3754Z"/>
</mask>
<path d="M97.3754 47V43.392L108.057 30.1676V30.0114H97.7447V25.1818H115.344V29.1165L105.316 42.0142V42.1705H115.713V47H97.3754Z" fill="white"/>
<path d="M97.3754 47H95.3754V49H97.3754V47ZM97.3754 43.392L95.8195 42.1353L95.3754 42.6852V43.392H97.3754ZM108.057 30.1676L109.613 31.4243L110.057 30.8745V30.1676H108.057ZM108.057 30.0114H110.057V28.0114H108.057V30.0114ZM97.7447 30.0114H95.7447V32.0114H97.7447V30.0114ZM97.7447 25.1818V23.1818H95.7447V25.1818H97.7447ZM115.344 25.1818H117.344V23.1818H115.344V25.1818ZM115.344 29.1165L116.923 30.3441L117.344 29.8025V29.1165H115.344ZM105.316 42.0142L103.737 40.7866L103.316 41.3282V42.0142H105.316ZM105.316 42.1705H103.316V44.1705H105.316V42.1705ZM115.713 42.1705H117.713V40.1705H115.713V42.1705ZM115.713 47V49H117.713V47H115.713ZM97.3754 47H99.3754V43.392H97.3754H95.3754V47H97.3754ZM97.3754 43.392L98.9312 44.6488L109.613 31.4243L108.057 30.1676L106.501 28.9109L95.8195 42.1353L97.3754 43.392ZM108.057 30.1676H110.057V30.0114H108.057H106.057V30.1676H108.057ZM108.057 30.0114V28.0114H97.7447V30.0114V32.0114H108.057V30.0114ZM97.7447 30.0114H99.7447V25.1818H97.7447H95.7447V30.0114H97.7447ZM97.7447 25.1818V27.1818H115.344V25.1818V23.1818H97.7447V25.1818ZM115.344 25.1818H113.344V29.1165H115.344H117.344V25.1818H115.344ZM115.344 29.1165L113.765 27.8888L103.737 40.7866L105.316 42.0142L106.895 43.2418L116.923 30.3441L115.344 29.1165ZM105.316 42.0142H103.316V42.1705H105.316H107.316V42.0142H105.316ZM105.316 42.1705V44.1705H115.713V42.1705V40.1705H105.316V42.1705ZM115.713 42.1705H113.713V47H115.713H117.713V42.1705H115.713ZM115.713 47V45H97.3754V47V49H115.713V47Z" fill="black" mask="url(#path-1-outside-1_597_520)"/>
<mask id="path-3-outside-2_597_520" maskUnits="userSpaceOnUse" x="79" y="33" width="18" height="21" fill="black">
<rect fill="white" x="79" y="33" width="18" height="21"/>
<path d="M81.1565 52V49.294L89.1679 39.3757V39.2585H81.4335V35.6364H94.6331V38.5874L87.1118 48.2607V48.3778H94.9101V52H81.1565Z"/>
</mask>
<path d="M81.1565 52V49.294L89.1679 39.3757V39.2585H81.4335V35.6364H94.6331V38.5874L87.1118 48.2607V48.3778H94.9101V52H81.1565Z" fill="white"/>
<path d="M81.1565 52H79.1565V54H81.1565V52ZM81.1565 49.294L79.6007 48.0373L79.1565 48.5872V49.294H81.1565ZM89.1679 39.3757L90.7237 40.6324L91.1679 40.0826V39.3757H89.1679ZM89.1679 39.2585H91.1679V37.2585H89.1679V39.2585ZM81.4335 39.2585H79.4335V41.2585H81.4335V39.2585ZM81.4335 35.6364V33.6364H79.4335V35.6364H81.4335ZM94.6331 35.6364H96.6331V33.6364H94.6331V35.6364ZM94.6331 38.5874L96.212 39.815L96.6331 39.2734V38.5874H94.6331ZM87.1118 48.2607L85.5329 47.033L85.1118 47.5746V48.2607H87.1118ZM87.1118 48.3778H85.1118V50.3778H87.1118V48.3778ZM94.9101 48.3778H96.9101V46.3778H94.9101V48.3778ZM94.9101 52V54H96.9101V52H94.9101ZM81.1565 52H83.1565V49.294H81.1565H79.1565V52H81.1565ZM81.1565 49.294L82.7124 50.5507L90.7237 40.6324L89.1679 39.3757L87.612 38.119L79.6007 48.0373L81.1565 49.294ZM89.1679 39.3757H91.1679V39.2585H89.1679H87.1679V39.3757H89.1679ZM89.1679 39.2585V37.2585H81.4335V39.2585V41.2585H89.1679V39.2585ZM81.4335 39.2585H83.4335V35.6364H81.4335H79.4335V39.2585H81.4335ZM81.4335 35.6364V37.6364H94.6331V35.6364V33.6364H81.4335V35.6364ZM94.6331 35.6364H92.6331V38.5874H94.6331H96.6331V35.6364H94.6331ZM94.6331 38.5874L93.0542 37.3597L85.5329 47.033L87.1118 48.2607L88.6907 49.4883L96.212 39.815L94.6331 38.5874ZM87.1118 48.2607H85.1118V48.3778H87.1118H89.1118V48.2607H87.1118ZM87.1118 48.3778V50.3778H94.9101V48.3778V46.3778H87.1118V48.3778ZM94.9101 48.3778H92.9101V52H94.9101H96.9101V48.3778H94.9101ZM94.9101 52V50H81.1565V52V54H94.9101V52Z" fill="black" mask="url(#path-3-outside-2_597_520)"/>
<mask id="path-5-outside-3_597_520" maskUnits="userSpaceOnUse" x="116" y="13" width="27" height="31" fill="black">
<rect fill="white" x="116" y="13" width="27" height="31"/>
<path d="M118.05 42V37.6705L130.869 21.8011V21.6136H118.494V15.8182H139.613V20.5398L127.579 36.017V36.2045H140.056V42H118.05Z"/>
</mask>
<path d="M118.05 42V37.6705L130.869 21.8011V21.6136H118.494V15.8182H139.613V20.5398L127.579 36.017V36.2045H140.056V42H118.05Z" fill="white"/>
<path d="M118.05 42H116.05V44H118.05V42ZM118.05 37.6705L116.495 36.4137L116.05 36.9636V37.6705H118.05ZM130.869 21.8011L132.424 23.0578L132.869 22.508V21.8011H130.869ZM130.869 21.6136H132.869V19.6136H130.869V21.6136ZM118.494 21.6136H116.494V23.6136H118.494V21.6136ZM118.494 15.8182V13.8182H116.494V15.8182H118.494ZM139.613 15.8182H141.613V13.8182H139.613V15.8182ZM139.613 20.5398L141.192 21.7674L141.613 21.2258V20.5398H139.613ZM127.579 36.017L126 34.7894L125.579 35.331V36.017H127.579ZM127.579 36.2045H125.579V38.2045H127.579V36.2045ZM140.056 36.2045H142.056V34.2045H140.056V36.2045ZM140.056 42V44H142.056V42H140.056ZM118.05 42H120.05V37.6705H118.05H116.05V42H118.05ZM118.05 37.6705L119.606 38.9272L132.424 23.0578L130.869 21.8011L129.313 20.5444L116.495 36.4137L118.05 37.6705ZM130.869 21.8011H132.869V21.6136H130.869H128.869V21.8011H130.869ZM130.869 21.6136V19.6136H118.494V21.6136V23.6136H130.869V21.6136ZM118.494 21.6136H120.494V15.8182H118.494H116.494V21.6136H118.494ZM118.494 15.8182V17.8182H139.613V15.8182V13.8182H118.494V15.8182ZM139.613 15.8182H137.613V20.5398H139.613H141.613V15.8182H139.613ZM139.613 20.5398L138.034 19.3121L126 34.7894L127.579 36.017L129.158 37.2447L141.192 21.7674L139.613 20.5398ZM127.579 36.017H125.579V36.2045H127.579H129.579V36.017H127.579ZM127.579 36.2045V38.2045H140.056V36.2045V34.2045H127.579V36.2045ZM140.056 36.2045H138.056V42H140.056H142.056V36.2045H140.056ZM140.056 42V40H118.05V42V44H140.056V42Z" fill="black" mask="url(#path-5-outside-3_597_520)"/>
</svg>
